!!!!SEGMENT: Snf0107-Christe_qui_lux_es.krn
!!!id: Snf0107
!!!AGN: Motet
!!!voices: 4
!!!COM: Ludwig Senfl
!!!OTL: Christe, qui lux es
**kern	**text	**kern	**text	**kern	**text	**kern	**text
*part4	*part4	*part3	*part3	*part2	*part2	*part1	*part1
*staff4	*staff4	*staff3	*staff3	*staff2	*staff2	*staff1	*staff1
*I"Bassus	*	*I"Tenor	*	*I"Altus	*	*I"Superius	*
*I'B	*	*I'T	*	*I'A	*	*I'S	*
*clefF4	*	*clefGv2	*	*clefGv2	*	*clefG2	*
*k[b-]	*	*k[b-]	*	*k[b-]	*	*k[b-]	*
*F:	*	*F:	*	*F:	*	*F:	*
*M2/1	*	*M2/1	*	*M2/1	*	*M2/1	*
*met(C|)	*	*met(C|)	*	*met(C|)	*	*met(C|)	*
!!section: Prima pars: Christe, qui lux es
!!!OMD: Prima pars: Christe, qui lux es
2.G	Chri-	2r	.	1r	.	0g	Chri-
.	.	2.G	Chri-	.	.	.	.
4A	.	.	.	.	.	.	.
2B-y	.	.	.	2.G	Chri-	.	.
.	.	4A	.	.	.	.	.
[2E-X	.	2B-y	.	.	.	.	.
.	.	.	.	4A	.	.	.
=1	=1	=1	=1	=1	=1	=1	=1
4E-]	.	2.E-X	.	2B-y	.	0g	-ste,
4F	.	.	.	.	.	.	.
2G	.	.	.	2E-X	.	.	.
.	.	4F	.	.	.	.	.
1C	-ste,	4G	.	1e-X	.	.	.
.	.	4C	.	.	.	.	.
.	.	2c	.	.	.	.	.
=2	=2	=2	=2	=2	=2	=2	=2
2.G	Chri-	2B-y	-ste,	1d	-ste,	0b-y	.
.	.	2.G	Chri-	.	.	.	.
4A	.	.	.	.	.	.	.
2B-y	.	.	.	2.G	Chri-	.	.
.	.	4A	.	.	.	.	.
[2E-X	.	2B-y	.	.	.	.	.
.	.	.	.	4A	.	.	.
=3	=3	=3	=3	=3	=3	=3	=3
4E-]	.	2.E-i	.	2B-y	.	0g	qui
4F	.	.	.	.	.	.	.
2G	.	.	.	2E-i	.	.	.
.	.	4F	.	.	.	.	.
1C	-ste,	4G	.	1e-i	.	.	.
.	.	4C	.	.	.	.	.
.	.	2c	.	.	.	.	.
=4	=4	=4	=4	=4	=4	=4	=4
*M3/1	*	*M3/1	*	*M3/1	*	*	*
*met(3)	*	*met(3)	*	*met(3)	*	*	*
!	!	!	!	!	!	!LO:N:vis=0	!
2.D	Chri-	1A	-ste,	1d	-ste,	0.f	.
4E	.	.	.	.	.	.	.
2F	.	2A	Chri-	2c	.	.	.
2.BB-y	.	1B-y	.	2.d	Chri-	.	.
4C	.	.	.	4e	.	.	.
2D	.	2A	.	2f	.	.	.
=5	=5	=5	=5	=5	=5	=5	=5
!	!	!	!	!	!	!LO:N:vis=0	!
1GG	-ste,	2.G	.	2.B-y	.	0.g	lux
.	.	4A	.	4c	.	.	.
2r	.	2B-y	.	2d	.	.	.
2.G	qui	2.E-X	.	2G	-ste,	.	.
.	.	.	.	2g	qui	.	.
4A	.	4F	.	.	.	.	.
2B-y	.	2G	.	2d	lux	.	.
=6	=6	=6	=6	=6	=6	=6	=6
!	!	!	!	!	!	!LO:N:vis=0	!
2.F	.	1D	-ste,	1f	.	0.a	es
4G	.	.	.	.	.	.	.
2A	.	2r	.	2e	.	.	.
2.D	lux	1d	qui	2.f	es	.	.
4E	.	.	.	4g	.	.	.
2F	.	2c	.	2a	.	.	.
=7	=7	=7	=7	=7	=7	=7	=7
!	!	!	!	!	!	!LO:N:vis=0	!
2.BB-y	.	2.B-y	lux	2.d	et	0.b-y	et
4C	.	4A	.	4e	.	.	.
2D	.	2F	.	2f	.	.	.
2.GG	.	2.G	.	2.B-y	di-	.	.
4AA	.	4F	.	4c	.	.	.
2BB-y	.	2D	.	2d	.	.	.
=8	=8	=8	=8	=8	=8	=8	=8
!	!	!	!	!	!	!LO:N:vis=0	!
1FF	es	1F	es	1c	-es,	0.a	di-
2F	et	2D	et	2F	et	.	.
2.D	di-	2.d	di-	2.f	di-	.	.
4E	.	4c	.	4e	.	.	.
2F	.	2A	.	2c	.	.	.
=9	=9	=9	=9	=9	=9	=9	=9
*M2/1	*	*M2/1	*	*M2/1	*	*	*
*met(C|)	*	*met(C|)	*	*met(C|)	*	*	*
1C	-es,	1c	-es,	1e-X	-es,	0g	-es,
2r	.	2.G	no-	2.B-y	no-	.	.
[2G	no-	.	.	.	.	.	.
.	.	4A	.	4c	.	.	.
=10	=10	=10	=10	=10	=10	=10	=10
4G]	.	2B-y	.	1d	-ctis,	1r	.
4A	.	.	.	.	.	.	.
2B-y	.	4G	.	.	.	.	.
.	.	4A	.	.	.	.	.
2G	.	4B-y	.	2r	.	1b-y	no-
.	.	4c	.	.	.	.	.
[2B-y	.	[2d	.	[2f	no-	.	.
=11	=11	=11	=11	=11	=11	=11	=11
4B-]	.	4d]	.	2f]	.	1b-y	-ctis
4A	.	4c	.	.	.	.	.
4G	.	4B-y	.	2g	-ctis	.	.
4F	.	4A	.	.	.	.	.
1G	.	1B-y	.	2d	te-	1b-y	te-
.	.	.	.	2e	-ne-	.	.
=12	=12	=12	=12	=12	=12	=12	=12
1F	-ctis	1c	-ctis	1f	-bras	0a	-ne-
2r	.	2r	.	2r	.	.	.
[2D	te-	[2d	te-	[2F	de-	.	.
=13	=13	=13	=13	=13	=13	=13	=13
4D]	.	2d]	.	4F]	.	[0f	-bras
4E	.	.	.	4G	.	.	.
2F	.	2c	-ne-	2A	.	.	.
2D	.	2d	.	2B-y	-te-	.	.
[2F	-ne-	2c	.	2A	.	.	.
=14	=14	=14	=14	=14	=14	=14	=14
4F]	.	1A	-bras	2D	-gis,	0f]	.
4E	.	.	.	.	.	.	.
4D	.	.	.	2.d	de-	.	.
4C	.	.	.	.	.	.	.
1D	.	1F	.	.	.	.	.
.	.	.	.	4e	.	.	.
.	.	.	.	4f	.	.	.
.	.	.	.	4d	.	.	.
=15	=15	=15	=15	=15	=15	=15	=15
1C	-bras	1c	de-	1e	.	[0g	de-
2r	.	2.G	-te-	[1d	-te-	.	.
[2G	de-	.	.	.	.	.	.
.	.	4A	.	.	.	.	.
=16	=16	=16	=16	=16	=16	=16	=16
4G]	.	2B-y	.	1d]	.	0g]	.
4A	.	.	.	.	.	.	.
2B-y	.	2G	.	.	.	.	.
2G	.	4B-y	.	1d	-gis,	.	.
.	.	4A	.	.	.	.	.
[2B-y	-te-	4G	.	.	.	.	.
.	.	4F	.	.	.	.	.
=17	=17	=17	=17	=17	=17	=17	=17
4B-]	.	2G	.	2r	.	0b-y	-te-
4A	.	.	.	.	.	.	.
4G	.	2.B-y	-gis,	1d	de-	.	.
4F	.	.	.	.	.	.	.
1G	.	.	.	.	.	.	.
.	.	4c	.	.	.	.	.
.	.	[2d	.	2B-y	-te-	.	.
=18	=18	=18	=18	=18	=18	=18	=18
1F	-gis,	2d]	.	[0f	-gis,	[0a	-gis,
.	.	2c	lu-	.	.	.	.
2r	.	2A	-cis-	.	.	.	.
[2D	lu-	[2d	-que,	.	.	.	.
=19	=19	=19	=19	=19	=19	=19	=19
4D]	.	2d]	.	0f]	.	0a]	.
4E	.	.	.	.	.	.	.
2F	.	2c	[lu-	.	.	.	.
2D	.	2d	-cis-	.	.	.	.
[2F	-cis-	2c	.	.	.	.	.
=20	=20	=20	=20	=20	=20	=20	=20
4F]	.	2A	-que,]	1r	.	1r	.
4E	.	.	.	.	.	.	.
4D	.	2d	lu-	.	.	.	.
4C	.	.	.	.	.	.	.
1D	.	2d	-cis-	1f	lu-	1b-y	lu-
.	.	2d	-que	.	.	.	.
=21	=21	=21	=21	=21	=21	=21	=21
1C	-que,	1e	lu-	1g	-cis-	1cc	-cis-
2r	.	2.c	.	1e	-que	1cc	-que
2c	lu-	.	.	.	.	.	.
.	.	4d	.	.	.	.	.
=22	=22	=22	=22	=22	=22	=22	=22
2A	-cis-	2e	.	1a	lu-	0cc	lu-
2F	-que	1f	.	.	.	.	.
1c	lu-	.	.	1g	.	.	.
.	.	2e	.	.	.	.	.
=23	=23	=23	=23	=23	=23	=23	=23
1F	-men,	1f	-men	2f	.	[0a	-men
.	.	.	.	2c	.	.	.
2r	.	2e	cre-	1c	-men,	.	.
2A	[lu-	2c	.	.	.	.	.
=24	=24	=24	=24	=24	=24	=24	=24
2F	-cis-	2A	.	2r	.	0a_	.
2D	-que	1d	.	1f	lu-	.	.
1A	lu-	.	.	.	.	.	.
.	.	2c#i	-de-	2e	.	.	.
=25	=25	=25	=25	=25	=25	=25	=25
1D	-men]	1d	-ris,	1f	.	0a]	.
2r	.	2A	cre-	2e	.	.	.
2D	cre-	2F	.	2A	.	.	.
=26	=26	=26	=26	=26	=26	=26	=26
2BB-y	-de-	2D	.	1d	-men	1b-y	cre-
2GG	.	1G	.	.	.	.	.
1D	.	.	.	2r	.	1a	-de-
.	.	2F#i	-de-	[2d	cre-	.	.
=27	=27	=27	=27	=27	=27	=27	=27
1GG	-ris,	1G	-ris,	2d]	.	[0g	-ris,
.	.	.	.	1B-y	-de-	.	.
2r	.	2d	lu-	.	.	.	.
2G	lu-	2B-y	.	2G	-ris,	.	.
=28	=28	=28	=28	=28	=28	=28	=28
2E	.	2G	.	2g	cre-	0g]	.
2C	.	1c	.	2e	.	.	.
1G	.	.	.	1d	-de-	.	.
.	.	2BnXi	-men	.	.	.	.
=29	=29	=29	=29	=29	=29	=29	=29
1C	-men	1c	be-	1e	-ris,	0r	.
2r	.	2A	-a-	2c	lu-	.	.
2F	be-	2F	-tum,	2A	.	.	.
=30	=30	=30	=30	=30	=30	=30	=30
2D	-a-	2f	be-	2F	.	1r	.
2BB-y	.	2d	-a-	2f	-men	.	.
1F	.	1c	.	2r	.	1a	lu-
.	.	.	.	2f	be-	.	.
=31	=31	=31	=31	=31	=31	=31	=31
1BB-y	-tum	2B-y	.	1d	-a-	0b-y	-men
.	.	2F	.	.	.	.	.
2r	.	1G	-tum	1B-y	-tum	.	.
2BB-y	prae-	.	.	.	.	.	.
=32	=32	=32	=32	=32	=32	=32	=32
1C	.	2r	.	0e-X	prae-	0g	be-
.	.	2G	prae-	.	.	.	.
2r	.	1c	.	.	.	.	.
2C	.	.	.	.	.	.	.
=33	=33	=33	=33	=33	=33	=33	=33
1D	.	2r	.	1d	-di-	0f	.
.	.	2A	.	.	.	.	.
2r	.	1B-y	.	1d	-cans,	.	.
2D	.	.	.	.	.	.	.
=34	=34	=34	=34	=34	=34	=34	=34
1E-X	.	2r	.	1G	prae-	0g	-a-
.	.	2B-y	.	.	.	.	.
2r	.	1c	.	1e	.	.	.
2E-i	.	.	.	.	.	.	.
=35	=35	=35	=35	=35	=35	=35	=35
1F	.	2r	.	2c	.	0a	-tum
.	.	2c	.	1.f	.	.	.
2r	.	1d	.	.	.	.	.
2F	.	.	.	.	.	.	.
=36	=36	=36	=36	=36	=36	=36	=36
1G	.	2r	.	2d	-di-	0b-y	prae-
.	.	2d	.	2B-y	-cans,	.	.
2r	.	2e-X	.	2r	.	.	.
2G	.	[2d	.	2B-y	prae-	.	.
=37	=37	=37	=37	=37	=37	=37	=37
1F	.	2d]	.	1f	.	0a	-di-
.	.	2c	.	.	.	.	.
2r	.	2d	.	2r	.	.	.
2F	.	[2c	.	2f	-di-	.	.
=38	=38	=38	=38	=38	=38	=38	=38
1E-X	.	2c]	.	2g	-cans,	0g	-cans,
.	.	2B-y	.	2G	.	.	.
2r	.	2c	.	2r	.	.	.
2E-i	.	[2B-y	.	2G	[prae-	.	.
=39	=39	=39	=39	=39	=39	=39	=39
1D	.	2B-]	.	1.d	.	0r	.
.	.	2A	.	.	.	.	.
2r	.	2B-y	.	.	.	.	.
2D	.	[2A	.	2f	-di-	.	.
=40	=40	=40	=40	=40	=40	=40	=40
2.C	.	4A]	.	2.e-X	-cans,]	1r	.
.	.	4G	.	.	.	.	.
.	.	1G	.	.	.	.	.
4BB-y	.	.	.	4d	.	.	.
1AA	-di-	.	.	1c	.	1a	lu-
.	.	2F#i	-di-	.	.	.	.
=41	=41	=41	=41	=41	=41	=41	=41
1GG	-cans,	1G	-cans,	1B-y	.	1b-y	-men
1C	lu-	2G	lu-	1e-i	lu-	1g	be-
.	.	2c	-men	.	.	.	.
=42	=42	=42	=42	=42	=42	=42	=42
1D	-men	2A	be-	1d	-men	1f	.
.	.	1B-y	-a-	.	.	.	.
1E	be-	.	.	2G	be-	1g	-a-
.	.	[2c	-tum	2g	-a-	.	.
=43	=43	=43	=43	=43	=43	=43	=43
1F	-a-	2c]	.	2c	-tum	1a	-tum
.	.	1d	prae-	1f	prae-	.	.
1G	-tum	.	.	.	.	1b-y	prae-
.	.	2B-y	.	2e	.	.	.
=44	=44	=44	=44	=44	=44	=44	=44
2F	prae-	2c	.	2f	.	2a	-di-
2E	.	2G	.	2c	.	1g	.
1D	-di-	1A	-di-	1d	-di-	.	.
.	.	.	.	.	.	2f#i	.
=45	=45	=45	=45	=45	=45	=45	=45
1GG	-cans.	0G	-cans.	0d	-cans.	2g	-cans.
.	.	.	.	.	.	2g	Pre-
1r	.	.	.	.	.	1g	-ca-
=46	=46	=46	=46	=46	=46	=46	=46
1G	Pre-	0r	.	1r	.	1b-y	.
1G	-ca-	.	.	1d	Pre-	1g	-mur,
=47	=47	=47	=47	=47	=47	=47	=47
1B-y	.	0r	.	0d	-ca-	1f	.
1G	-mur,	.	.	.	.	1g	san-
=48	=48	=48	=48	=48	=48	=48	=48
1F	.	0r	.	0f	.	1a	-cte
2r	.	.	.	.	.	2r	.
2F	pre-	.	.	.	.	2a	Do-
=49	=49	=49	=49	=49	=49	=49	=49
1.G	-ca-	1r	.	0d	-mur,	2.b-y	.
.	.	.	.	.	.	4a	.
.	.	1G	Pre-	.	.	2.g	.
2GG	-mur,	.	.	.	.	.	.
.	.	.	.	.	.	4f	.
=50	=50	=50	=50	=50	=50	=50	=50
1.C	san-	0G	-ca-	0c	.	1e	.
.	.	.	.	.	.	1e	-mi-
2C	-cte	.	.	.	.	.	.
=51	=51	=51	=51	=51	=51	=51	=51
2BB-y	.	0B-y	.	0d	san-	2d	-ne,
2GG	.	.	.	.	.	1dd	san-
2G	Do-	.	.	.	.	.	.
2G	-mi-	.	.	.	.	2b-y	.
=52	=52	=52	=52	=52	=52	=52	=52
1C	-ne,	0G	-mur,	0e	-cte	2cc	-cte
.	.	.	.	.	.	2.g	Do-
2C	san-	.	.	.	.	.	.
.	.	.	.	.	.	4f	.
2C	-cte	.	.	.	.	2e	.
=53	=53	=53	=53	=53	=53	=53	=53
1D	Do-	0F	.	0f	Do-	2d	.
.	.	.	.	.	.	1c	.
1D	-mi-	.	.	.	.	.	.
.	.	.	.	.	.	2BnXi	-mi-
=54	=54	=54	=54	=54	=54	=54	=54
1C	-ne,	1G	san-	0e	-mi-	1c	-ne,
2r	.	1A	-cte	.	.	2r	.
2C	san-	.	.	.	.	2cc	Do-
=55	=55	=55	=55	=55	=55	=55	=55
2BB-y	-cte	0B-y	Do-	[0d	-ne,	2dd	.
2.GG	Do-	.	.	.	.	2.b-y	.
4AA	.	.	.	.	.	4a	.
4BB-y	.	.	.	.	.	2g	.
4C	.	.	.	.	.	.	.
=56	=56	=56	=56	=56	=56	=56	=56
1D	.	0A	-mi-	0d_	.	2f	.
.	.	.	.	.	.	1g	.
1D	-mi-	.	.	.	.	.	.
.	.	.	.	.	.	2f#i	-mi-
=57	=57	=57	=57	=57	=57	=57	=57
1GG	-ne,	1G	-ne,	0d_	.	0g	-ne,
1G	de-	1B-y	de-	.	.	.	.
=58	=58	=58	=58	=58	=58	=58	=58
1G	-fen-	1B-y	-fen-	0d]	.	2r	.
.	.	.	.	.	.	2g	de-
1G	-de	1B-y	-de	.	.	2g	-fen-
.	.	.	.	.	.	2g	-de
=59	=59	=59	=59	=59	=59	=59	=59
1F	nos	0A	nos	1r	.	2a	nos
.	.	.	.	.	.	2a	in
1F	in	.	.	1f	de-	4a	hac
.	.	.	.	.	.	4g	.
.	.	.	.	.	.	4f	.
.	.	.	.	.	.	4e	.
=60	=60	=60	=60	=60	=60	=60	=60
1BB-y	hac	0F	in	1f	-fen-	2d	.
.	.	.	.	.	.	2d	no-
1D	no-	.	.	1f	-de	2.A	-cte,
.	.	.	.	.	.	4B-y	.
=61	=61	=61	=61	=61	=61	=61	=61
1C	-cte,	[0G	hac	0e	nos	1c	.
2r	.	.	.	.	.	2r	.
2C	in	.	.	.	.	2cc	in
=62	=62	=62	=62	=62	=62	=62	=62
1C	hac	0G]	.	0c	in	2cc	hac
.	.	.	.	.	.	2cc	no-
1C	no-	.	.	.	.	2g	-cte,
.	.	.	.	.	.	2g	[in
=63	=63	=63	=63	=63	=63	=63	=63
2GG	-cte,	0B-y	no-	0d	hac	2g	hac
2G	[in	.	.	.	.	2g	no-
2G	hac	.	.	.	.	2d	-cte,]
2G	no-	.	.	.	.	2dd	[in
=64	=64	=64	=64	=64	=64	=64	=64
1D	-cte,]	0A	-cte,	[0f	no-	2dd	hac
.	.	.	.	.	.	2dd	no-
2r	.	.	.	.	.	1a	-cte,]
2D	[in	.	.	.	.	.	.
=65	=65	=65	=65	=65	=65	=65	=65
1D	hac	1r	.	0f]	.	2r	.
.	.	.	.	.	.	2dd	in
1D	no-	1B-y	sit	.	.	2dd	hac
.	.	.	.	.	.	2dd	no-
=66	=66	=66	=66	=66	=66	=66	=66
1AA	-cte,]	1c	no-	[0e	-cte,	2cc	-cte
.	.	.	.	.	.	2a	sit
2r	.	1c	-bis	.	.	2cc	no-
2AA	sit	.	.	.	.	2cc	-bis
=67	=67	=67	=67	=67	=67	=67	=67
2C	no-	1c	in	0e]	.	2cc	in
2C	-bis	.	.	.	.	2g	te
2C	in	1A	te	.	.	2cc	re-
2C	te	.	.	.	.	2cc	-qui-
=68	=68	=68	=68	=68	=68	=68	=68
4GG	re-	1B-y	re-	1r	.	1b-y	-es,
4AA	.	.	.	.	.	.	.
4BB-y	.	.	.	.	.	.	.
4C	.	.	.	.	.	.	.
2D	.	1A	-qui-	1f	sit	1r	.
2D	-qui-	.	.	.	.	.	.
=69	=69	=69	=69	=69	=69	=69	=69
1GG	-es,	[0G	-es,	1g	no-	2r	.
.	.	.	.	.	.	2b-y	sit
2r	.	.	.	1g	-bis	4b-y	no-
.	.	.	.	.	.	4a	.
2GG	sit	.	.	.	.	4g	.
.	.	.	.	.	.	4f	.
=70	=70	=70	=70	=70	=70	=70	=70
2C	no-	0G]	.	1g	in	2e	.
2C	-bis	.	.	.	.	2c	-bis
2C	in	.	.	1e	te	1cc	in
2C	te	.	.	.	.	.	.
=71	=71	=71	=71	=71	=71	=71	=71
2D	re-	1r	.	1f	re-	2a	te
2D	-qui-	.	.	.	.	1dd	re-
1AA	-es,	1A	qui-	1e	-qui-	.	.
.	.	.	.	.	.	2cc#i	-qui-
=72	=72	=72	=72	=72	=72	=72	=72
2r	.	0B-y	-e-	0d	-es,	2dd	-es,
2G	qui-	.	.	.	.	2d	qui-
1G	-e-	.	.	.	.	1g	-e-
=73	=73	=73	=73	=73	=73	=73	=73
0C	-tam,	0G	-tam	1r	.	1e	-tam,
.	.	.	.	1e	qui-	1r	.
=74	=74	=74	=74	=74	=74	=74	=74
2r	.	0F	.	0f	-e-	2r	.
2D	qui-	.	.	.	.	2a	qui-
1D	-e-	.	.	.	.	2a	-e-
.	.	.	.	.	.	2a	-tam
=75	=75	=75	=75	=75	=75	=75	=75
0GG	-tam,	0G	no-	0d	-tam	2b-y	no-
.	.	.	.	.	.	2b-y	-ctem
.	.	.	.	.	.	2.b-y	tri-
.	.	.	.	.	.	8aL	.
.	.	.	.	.	.	8gJ	.
=76	=76	=76	=76	=76	=76	=76	=76
0r	.	0A	-ctem	0c	.	2f	.
.	.	.	.	.	.	1g	.
.	.	.	.	.	.	2f	.
=77	=77	=77	=77	=77	=77	=77	=77
2r	.	0B-y	tri-	0d	no-	2.g	.
2G	[qui-	.	.	.	.	.	.
.	.	.	.	.	.	4a	.
1G	-e-	.	.	.	.	4b-y	.
.	.	.	.	.	.	4cc	.
.	.	.	.	.	.	4dd	.
.	.	.	.	.	.	4b-y	.
=78	=78	=78	=78	=78	=78	=78	=78
2C	-tam,]	1A	-bu-	0e	-ctem	2.cc	-bu-
2C	[qui-	.	.	.	.	.	.
.	.	.	.	.	.	4c	.
1C	-e-	1G	-e,	.	.	2c	-e,
.	.	.	.	.	.	2g	qui-
=79	=79	=79	=79	=79	=79	=79	=79
2FF	-tam]	0r	.	0f	tri-	2a	-e-
2.F	no-	.	.	.	.	2a	-tam
.	.	.	.	.	.	4a	no-
4E	.	.	.	.	.	4g	.
2D	.	.	.	.	.	4a	.
.	.	.	.	.	.	4b-y	.
=80	=80	=80	=80	=80	=80	=80	=80
1C	.	1G	no-	0e	-bu-	2cc	.
.	.	.	.	.	.	2g	-ctem
2AA	.	1A	-ctem	.	.	1cc	tri-
2C	.	.	.	.	.	.	.
=81	=81	=81	=81	=81	=81	=81	=81
2BB-y	.	1B-y	tri-	[0d	-e.	2f	.
2GG	-ctem	.	.	.	.	1g	.
2D	tri-	1A	-bu-	.	.	.	.
2D	-bu-	.	.	.	.	2f#i	-bu-
=82	=82	=82	=82	=82	=82	=82	=82
0GG	-e.	0G	-e.	0d_	.	2g	-e.
.	.	.	.	.	.	2g	Ne
.	.	.	.	.	.	4g	gra-
.	.	.	.	.	.	4f	.
.	.	.	.	.	.	4g	.
.	.	.	.	.	.	4a	.
=83	=83	=83	=83	=83	=83	=83	=83
0r	.	2r	.	0d]	.	1b-y	.
.	.	2G	Ne	.	.	.	.
.	.	4G	gra-	.	.	1g	-vis
.	.	4F	.	.	.	.	.
.	.	4G	.	.	.	.	.
.	.	4A	.	.	.	.	.
=84	=84	=84	=84	=84	=84	=84	=84
0r	.	1B-y	.	2r	.	1f	.
.	.	.	.	2d	Ne	.	.
.	.	1G	-vis,	4d	gra-	1g	so-
.	.	.	.	4c	.	.	.
.	.	.	.	4d	.	.	.
.	.	.	.	4e	.	.	.
=85	=85	=85	=85	=85	=85	=85	=85
2r	.	1F	.	1f	.	[0a	-mnus
2D	Ne	.	.	.	.	.	.
4D	gra-	1r	.	1d	-vis	.	.
4C	.	.	.	.	.	.	.
4D	.	.	.	.	.	.	.
4E	.	.	.	.	.	.	.
=86	=86	=86	=86	=86	=86	=86	=86
1F	.	2r	.	1c	.	1a]	.
.	.	2A	ne	.	.	.	.
1D	-vis	4A	gra-	1d	so-	2r	.
.	.	4G	.	.	.	.	.
.	.	4A	.	.	.	[2a	ir-
.	.	4B-y	.	.	.	.	.
=87	=87	=87	=87	=87	=87	=87	=87
1C	.	1c	.	1e	-mnus	2a]	.
.	.	.	.	.	.	1g	.
1D	so-	1A	-vis	2r	.	.	.
.	.	.	.	2f	ir-	2f#i	-ru-
=88	=88	=88	=88	=88	=88	=88	=88
1E	-mnus	1G	.	2.e	.	1g	-at,
.	.	.	.	8dL	.	.	.
.	.	.	.	8cJ	.	.	.
1F	ir-	1r	.	2c	-ru-	1r	.
.	.	.	.	[2d	.	.	.
=89	=89	=89	=89	=89	=89	=89	=89
1E	-ru-	1G	so-	2d]	.	2r	.
.	.	.	.	2c#i	.	2g	ir-
[1D	-at,	1A	-mnus	[1d	.	2.f	.
.	.	.	.	.	.	8eL	.
.	.	.	.	.	.	8dJ	.
=90	=90	=90	=90	=90	=90	=90	=90
0D]	.	1B-y	ir-	0d]	.	2d	.
.	.	.	.	.	.	1g	.
.	.	1A	-ru-	.	.	.	.
.	.	.	.	.	.	2f#i	-ru-
=91	=91	=91	=91	=91	=91	=91	=91
2r	.	2G	-at,	0d	-at,	0g	-at,
2G	nec	2B-y	nec	.	.	.	.
2G	ho-	2B-y	ho-	.	.	.	.
2G	-stis	2B-y	-stis	.	.	.	.
=92	=92	=92	=92	=92	=92	=92	=92
2F	nos	2A	nos	0r	.	0r	.
2A	sur-	2F	sur-	.	.	.	.
2B-y	-ri-	2G	-ri-	.	.	.	.
2G	-pi-	2B-y	-pi-	.	.	.	.
=93	=93	=93	=93	=93	=93	=93	=93
2F	-at,	[0A	-at,	2r	.	2r	.
2D	[nec	.	.	2d	nec	2f	nec
2D	ho-	.	.	2d	ho-	2f	ho-
2D	-stis	.	.	2d	-stis	2f	-stis
=94	=94	=94	=94	=94	=94	=94	=94
2AA	nos	0A_	.	2c	nos	2e	nos
2AA	sur-	.	.	2e	sur-	2c	sur-
2D	-ri-	.	.	2f	-ri-	2d	-ri-
2D	-pi-	.	.	2d	-pi-	2f	-pi-
=95	=95	=95	=95	=95	=95	=95	=95
0AA	-at,]	0A]	.	0c	-at,	0e	-at,
=96	=96	=96	=96	=96	=96	=96	=96
1r	.	1r	.	1r	.	1f	nec
1GG	nec	1B-y	nec	1d	nec	[1g	ca-
=97	=97	=97	=97	=97	=97	=97	=97
1.C	ca-	1.c	ca-	1.e	ca-	2g]	.
.	.	.	.	.	.	2g	-ro
.	.	.	.	.	.	2g	il-
2C	-ro	2c	-ro	2e	-ro	[2g	-li
=98	=98	=98	=98	=98	=98	=98	=98
1C	il-	2c	il-	1e	il-	2g]	.
.	.	1c	-li	.	.	2e	con-
2AA	-li	.	.	1c	-li	2f	-sen-
2AA	con-	2A	con-	.	.	2e	-ti-
=99	=99	=99	=99	=99	=99	=99	=99
1D	-sen-	1B-y	-sen-	2d	con-	1d	-ens,
.	.	.	.	1g	-sen-	.	.
1D	-ti-	1A	-ti-	.	.	1a	nos
.	.	.	.	2f#i	-ti-	.	.
=100	=100	=100	=100	=100	=100	=100	=100
1GG	-ens,	0G	-ens,	2g	-ens,	1b-y	ti-
.	.	.	.	2G	nos	.	.
1r	.	.	.	1B-y	ti-	1g	-bi
=101	=101	=101	=101	=101	=101	=101	=101
1D	nos	0r	.	2A	-bi	1f	.
.	.	.	.	2d	re-	.	.
1E-X	ti-	.	.	2c	.	2.g	re-
.	.	.	.	2B-y	.	.	.
.	.	.	.	.	.	4f	.
=102	=102	=102	=102	=102	=102	=102	=102
1C	-bi	1A	nos	1c	-os,	1e-i	.
1BB-y	.	1B-y	ti-	2r	.	1d	-os,
.	.	.	.	2d	nos	.	.
=103	=103	=103	=103	=103	=103	=103	=103
*k[b-e-]	*	*	*	*	*	*	*
*B-:	*	*	*	*	*	*	*
2.C	re-	1G	-bi	1e-X	ti-	1r	.
4BB-y	.	.	.	.	.	.	.
1AA	.	1F	.	1c	-bi	1a	nos
=104	=104	=104	=104	=104	=104	=104	=104
1GG	-os,	2.G	re-	1B-y	.	1b-y	ti-
.	.	4F	.	.	.	.	.
1r	.	1E	.	1c	re-	1g	-bi
=105	=105	=105	=105	=105	=105	=105	=105
2r	.	2D	-os	1d	-os	1f	.
2D	nos	2A	sta-	.	.	.	.
2G	ti-	4B-y	.	2.d	sta-	1g	re-
.	.	4c	.	.	.	.	.
2G	-bi	4d	.	.	.	.	.
.	.	4B-y	.	4e	.	.	.
=106	=106	=106	=106	=106	=106	=106	=106
2.F	re-	2c	.	2f	.	[0a	-os
.	.	2f	.	2d	.	.	.
4G	.	.	.	.	.	.	.
2A	.	2e	.	2c	.	.	.
2D	-os	[2d	.	2d	.	.	.
=107	=107	=107	=107	=107	=107	=107	=107
1A	sta-	2d]	.	2.e	.	1a]	.
.	.	2c	.	.	.	.	.
.	.	.	.	4f	.	.	.
2G	.	1d	.	2g	.	2r	.
2B-y	.	.	.	[2f	.	2b-y	sta-
=108	=108	=108	=108	=108	=108	=108	=108
2F	.	2c	.	4f]	.	2a	.
.	.	.	.	4e	.	.	.
2G	-tu-	2B-y	.	4d	.	1g	.
.	.	.	.	4c	.	.	.
1D	-at.	1A	-tu-	2d	.	.	.
.	.	.	.	2d	-tu-	2f#i	-tu-
=109	=109	=109	=109	=109	=109	=109	=109
1.E-y	O-	[0G	-at.	1B-y	-at.	[0g	-at.
.	.	.	.	1r	.	.	.
[2C	-cu-	.	.	.	.	.	.
=110	=110	=110	=110	=110	=110	=110	=110
4C]	.	0G_	.	1c	O-	0g]	.
4D	.	.	.	.	.	.	.
2E-y	.	.	.	.	.	.	.
2C	.	.	.	1e-X	.	.	.
[2E-y	.	.	.	.	.	.	.
=111	=111	=111	=111	=111	=111	=111	=111
4E-]	.	0G_	.	1c	-cu-	1r	.
4D	.	.	.	.	.	.	.
4C	.	.	.	.	.	.	.
4BB-y	.	.	.	.	.	.	.
2C	.	.	.	1c	-li	1g	O-
4BB-y	.	.	.	.	.	.	.
4AA	.	.	.	.	.	.	.
=112	=112	=112	=112	=112	=112	=112	=112
1GG	-li,	0G]	.	1B-y	.	1b-y	.
1C	.	.	.	1r	.	1g	-cu-
=113	=113	=113	=113	=113	=113	=113	=113
0r	.	0r	.	2r	.	1g	-li
.	.	.	.	2e-i	so-	.	.
.	.	.	.	4d	-mnum,	1f	.
.	.	.	.	4c	.	.	.
.	.	.	.	4B-y	.	.	.
.	.	.	.	4A	.	.	.
=114	=114	=114	=114	=114	=114	=114	=114
0r	.	0r	.	2G	.	1g	so-
.	.	.	.	2g	so-	.	.
.	.	.	.	4f	-mnum,	1a	-mnum
.	.	.	.	4e	.	.	.
.	.	.	.	4d	.	.	.
.	.	.	.	4c	.	.	.
=115	=115	=115	=115	=115	=115	=115	=115
0r	.	0r	.	4B-y	.	1b-y	ca-
.	.	.	.	4G	.	.	.
.	.	.	.	2g	so-	.	.
.	.	.	.	4f	-mnum,	1a	-pi-
.	.	.	.	4e	.	.	.
.	.	.	.	4d	.	.	.
.	.	.	.	4c	.	.	.
=116	=116	=116	=116	=116	=116	=116	=116
0r	.	0r	.	4B-y	.	2g	-ant,
.	.	.	.	4G	.	.	.
.	.	.	.	2B-y	so-	2dd	so-
.	.	.	.	4A	-mnum	4cc	-mnum
.	.	.	.	4G	.	4b-y	.
.	.	.	.	4F	.	4a	.
.	.	.	.	4E	.	4g	.
=117	=117	=117	=117	=117	=117	=117	=117
0r	.	0r	.	2D	.	4f	.
.	.	.	.	.	.	4d	.
.	.	.	.	2d	ca-	2f	ca-
.	.	.	.	4c	.	2e	.
.	.	.	.	4B-y	.	.	.
.	.	.	.	4A	.	[2a	.
.	.	.	.	4G	.	.	.
=118	=118	=118	=118	=118	=118	=118	=118
0r	.	1r	.	2F	.	2a]	.
.	.	.	.	2G	.	1g	.
.	.	1c	O-	1A	-pi-	.	.
.	.	.	.	.	.	2f#i	-pi-
=119	=119	=119	=119	=119	=119	=119	=119
0C	o-	1e-X	.	1G	-ant,	[0g	-ant,
.	.	2c	.	[1e-X	o-	.	.
.	.	[2c	-cu-	.	.	.	.
=120	=120	=120	=120	=120	=120	=120	=120
0E-y	.	2c]	.	1e-]	.	0g]	.
.	.	4B-y	.	.	.	.	.
.	.	4A	.	.	.	.	.
.	.	1B-y	.	1e-i	-cu-	.	.
=121	=121	=121	=121	=121	=121	=121	=121
0C	-cu-	1c	-li,	1e-i	-li,	2r	.
.	.	.	.	.	.	2g	o-
.	.	1r	.	2r	.	4a	-cu-
.	.	.	.	.	.	4g	.
.	.	.	.	[2e-i	o-	[2cc	.
=122	=122	=122	=122	=122	=122	=122	=122
0C	-li	0G	o-	2e-]	.	2cc]	.
.	.	.	.	4d	.	4b-y	.
.	.	.	.	4c	.	4a	.
.	.	.	.	2e-i	.	2g	.
.	.	.	.	2e-i	-cu-	2cc	.
=123	=123	=123	=123	=123	=123	=123	=123
0BB-y	.	0B-y	.	1d	-li,	1f	-li,
.	.	.	.	2r	.	2r	.
.	.	.	.	2d	o-	2f	o-
=124	=124	=124	=124	=124	=124	=124	=124
0r	.	0G	-cu-	4e	.	2g	-cu-
.	.	.	.	4d	.	.	.
.	.	.	.	2.g	-cu-	2.b-y	-li
.	.	.	.	4f	-li	4a	.
.	.	.	.	4e	.	[2g	.
.	.	.	.	4d	.	.	.
=125	=125	=125	=125	=125	=125	=125	=125
0C	so-	0G	-li	0c	.	4g]	.
.	.	.	.	.	.	4f	.
.	.	.	.	.	.	4e	.
.	.	.	.	.	.	4d	.
.	.	.	.	.	.	4e	.
.	.	.	.	.	.	4d	.
.	.	.	.	.	.	4c	.
.	.	.	.	.	.	4B-y	.
=126	=126	=126	=126	=126	=126	=126	=126
0D	-mnum	0F	.	2r	.	2A	.
.	.	.	.	2.f	so-	1a	so-
.	.	.	.	4e	.	.	.
.	.	.	.	4d	.	2a	-mnum
.	.	.	.	4c	.	.	.
=127	=127	=127	=127	=127	=127	=127	=127
0E-y	ca-	0G	so-	2.B-y	.	2g	ca-
.	.	.	.	.	.	1b-y	.
.	.	.	.	4G	.	.	.
.	.	.	.	2B-y	.	.	.
.	.	.	.	2c	.	4a	.
.	.	.	.	.	.	4g	.
=128	=128	=128	=128	=128	=128	=128	=128
0D	-pi-	0A	-mnum	1d	-mnum	2f	.
.	.	.	.	.	.	1g	.
.	.	.	.	1r	.	.	.
.	.	.	.	.	.	2f#i	-pi-
=129	=129	=129	=129	=129	=129	=129	=129
0C	-ant,	0r	.	0e-X	ca-	1g	-ant,
.	.	.	.	.	.	2c	ca-
.	.	.	.	.	.	2cc	.
=130	=130	=130	=130	=130	=130	=130	=130
0r	.	0B-y	ca-	0d	-pi-	2.dd	.
.	.	.	.	.	.	4cc	.
.	.	.	.	.	.	2.b-y	.
.	.	.	.	.	.	8aL	.
.	.	.	.	.	.	8gJ	.
=131	=131	=131	=131	=131	=131	=131	=131
0r	.	0A	-pi-	0c	-ant,	2f	.
.	.	.	.	.	.	1g	.
.	.	.	.	.	.	2f#i	-pi-
=132	=132	=132	=132	=132	=132	=132	=132
1E-y	cor	1G	-ant	2r	.	1g	-ant,
.	.	.	.	2B-y	cor	.	.
1E-y	ad	1B-y	cor	2G	ad	2r	.
.	.	.	.	2G	te	2g	cor
=133	=133	=133	=133	=133	=133	=133	=133
1E-y	te	1B-y	ad	1g	sem-	2.b-y	ad
.	.	.	.	.	.	4cc	.
[1D	sem-	1B-y	te	[1f	-per	1dd	.
=134	=134	=134	=134	=134	=134	=134	=134
0D_	.	0A	sem-	1f]	.	2dd	te
.	.	.	.	.	.	1dd	sem-
.	.	.	.	[1f	vi-	.	.
.	.	.	.	.	.	4cc	.
.	.	.	.	.	.	4b-y	.
=135	=135	=135	=135	=135	=135	=135	=135
1D]	.	0F	-per	2f]	.	2a	.
.	.	.	.	2f	-gi-	2a	-per
[1BB-y	-per	.	.	[1d	-let,	[1b-y	vi-
=136	=136	=136	=136	=136	=136	=136	=136
1BB-]	.	[0G	vi-	1d]	.	2b-]	.
.	.	.	.	.	.	2b-y	-gi-
[1C	vi-	.	.	2r	.	1g	-let,
.	.	.	.	[2e-X	dex-	.	.
=137	=137	=137	=137	=137	=137	=137	=137
1C]	.	0G]	.	2e-]	.	2r	.
.	.	.	.	2e-i	-te-	1g	dex-
1E-y	-gi-	.	.	1B-y	-ra	.	.
.	.	.	.	.	.	2g	-te-
=138	=138	=138	=138	=138	=138	=138	=138
1D	-let,	0B-y	-gi-	1d	tu-	1f	-ra
1E-y	dex-	.	.	1G	-a,	1g	.
=139	=139	=139	=139	=139	=139	=139	=139
1F	-te-	[0A	-let,	2r	.	1.a	tu-
.	.	.	.	1c	dex-	.	.
1F	-ra	.	.	.	.	.	.
.	.	.	.	2c	-te-	2f	.
=140	=140	=140	=140	=140	=140	=140	=140
1F	tu-	0A]	.	1c	-ra	0f	-a,
1D	-a	.	.	2d	tu-	.	.
.	.	.	.	2d	-a	.	.
=141	=141	=141	=141	=141	=141	=141	=141
1E-y	pro-	1r	.	2B-y	pro-	0r	.
.	.	.	.	2c	-te-	.	.
1D	-te-	1B-y	dex-	1d	-gat,	.	.
=142	=142	=142	=142	=142	=142	=142	=142
0C	-gat	1c	-te-	2r	.	2r	.
.	.	.	.	2.e	dex-	1g	dex-
.	.	1c	-ra	.	.	.	.
.	.	.	.	4e	-te-	.	.
.	.	.	.	2e	-ra	2g	-te-
=143	=143	=143	=143	=143	=143	=143	=143
0r	.	1c	tu-	1e	tu-	1g	-ra
.	.	1A	-a	1c	-a	2a	tu-
.	.	.	.	.	.	2a	-a
=144	=144	=144	=144	=144	=144	=144	=144
1r	.	1B-y	pro-	1d	pro-	2f	pro-
.	.	.	.	.	.	1g	.
1D	fa-	1A	-te-	1d	-te-	.	.
.	.	.	.	.	.	2f#i	-te-
=145	=145	=145	=145	=145	=145	=145	=145
0E-y	-mu-	0G	-gat	2B-y	-gat	1g	-gat
.	.	.	.	1c	fa-	.	.
.	.	.	.	.	.	2r	.
.	.	.	.	2B-y	-mu-	2g	fa-
=146	=146	=146	=146	=146	=146	=146	=146
0C	-los	1r	.	1c	-los,	2a	.
.	.	.	.	.	.	2g	.
.	.	1A	fa-	2r	.	1cc	.
.	.	.	.	2c	fa-	.	.
=147	=147	=147	=147	=147	=147	=147	=147
0BB-y	.	0B-y	-mu-	2F	-mu-	2.dd	.
.	.	.	.	4f	.	.	.
.	.	.	.	4e	.	4cc	.
.	.	.	.	4d	.	4b-y	.
.	.	.	.	4c	.	4a	.
.	.	.	.	2d	.	4g	.
.	.	.	.	.	.	4f	.
=148	=148	=148	=148	=148	=148	=148	=148
0C	qui	0G	-los	1c	-los,	2e	.
.	.	.	.	.	.	1f	.
.	.	.	.	2r	.	.	.
.	.	.	.	2c	qui	2e	-mu-
=149	=149	=149	=149	=149	=149	=149	=149
0D	te	0F	.	2A	te	2f	-los,
.	.	.	.	2B-y	.	4d	qui
.	.	.	.	.	.	4e	.
.	.	.	.	2F	di-	4f	.
.	.	.	.	.	.	4g	.
.	.	.	.	2f	-li-	4a	.
.	.	.	.	.	.	4b-y	.
=150	=150	=150	=150	=150	=150	=150	=150
0E-y	di-	0G	qui	2.e-X	.	2cc	.
.	.	.	.	.	.	1b-y	.
.	.	.	.	8dL	.	.	.
.	.	.	.	8cJ	.	.	.
.	.	.	.	2B-y	.	.	.
.	.	.	.	2c	.	4a	.
.	.	.	.	.	.	4g	.
=151	=151	=151	=151	=151	=151	=151	=151
*k[b-]	*	*	*	*	*	*	*
*F:	*	*	*	*	*	*	*
1D	-li-	0A	te	2d	.	2f	.
.	.	.	.	2f	.	2f	te
1C	-gunt,	.	.	1e	.	2cc	di-
.	.	.	.	.	.	2cc	-li-
=152	=152	=152	=152	=152	=152	=152	=152
2r	.	0B-y	di-	0d	-gunt,	0f	-gunt,
2.BB-y	di-	.	.	.	.	.	.
4C	.	.	.	.	.	.	.
4D	.	.	.	.	.	.	.
4E	.	.	.	.	.	.	.
=153	=153	=153	=153	=153	=153	=153	=153
4F	.	0A	-li-	0r	.	0r	.
4D	.	.	.	.	.	.	.
4D	.	.	.	.	.	.	.
4E	.	.	.	.	.	.	.
4F	.	.	.	.	.	.	.
4G	.	.	.	.	.	.	.
4A	.	.	.	.	.	.	.
4F	.	.	.	.	.	.	.
=154	=154	=154	=154	=154	=154	=154	=154
2G	.	0G	-gunt,	2r	.	0b-y	di-
2GG	-li-	.	.	2.B-y	di-	.	.
1GG	-gunt,	.	.	.	.	.	.
.	.	.	.	4c	.	.	.
.	.	.	.	4d	.	.	.
.	.	.	.	4e	.	.	.
=155	=155	=155	=155	=155	=155	=155	=155
0r	.	0r	.	4f	.	0a	-li-
.	.	.	.	4d	.	.	.
.	.	.	.	4d	.	.	.
.	.	.	.	4e	.	.	.
.	.	.	.	4f	.	.	.
.	.	.	.	4g	.	.	.
.	.	.	.	4a	.	.	.
.	.	.	.	4f	.	.	.
=156	=156	=156	=156	=156	=156	=156	=156
0r	.	0r	.	2g	.	0g	-gunt,
.	.	.	.	2G	-li-	.	.
.	.	.	.	1G	-gunt,	.	.
=157	=157	=157	=157	=157	=157	=157	=157
0r	.	0r	.	2d	qui	2r	.
.	.	.	.	2e	te	2g	qui
.	.	.	.	4f	di-	2a	te
.	.	.	.	4e	.	.	.
.	.	.	.	4d	.	[2b-y	di-
.	.	.	.	4c	.	.	.
=158	=158	=158	=158	=158	=158	=158	=158
1r	.	0r	.	2B-y	.	4b-]	.
.	.	.	.	.	.	4a	.
.	.	.	.	2c	.	1g	.
2r	.	.	.	1A	-li-	.	.
2D	qui	.	.	.	.	2f#i	-li-
=159	=159	=159	=159	=159	=159	=159	=159
1E	te	2r	.	1G	-gunt,	1g	-gunt,
.	.	2G	qui	.	.	.	.
4F	di-	2A	te	1r	.	1r	.
4E	.	.	.	.	.	.	.
4D	.	[2B-y	di-	.	.	.	.
4C	.	.	.	.	.	.	.
=160	=160	=160	=160	=160	=160	=160	=160
2BB-y	.	4B-]	.	0r	.	2r	.
.	.	4A	.	.	.	.	.
2C	.	1G	.	.	.	2g	qui
1AA	-li-	.	.	.	.	1a	te
.	.	2F#i	-li-	.	.	.	.
=161	=161	=161	=161	=161	=161	=161	=161
1GG	-gunt,	2G	-gunt,	2r	.	1b-y	di-
.	.	2B-y	qui	1g	qui	.	.
2r	.	2c	.	.	.	1a	-li-
2D	qui	2d	.	2f	te	.	.
=162	=162	=162	=162	=162	=162	=162	=162
1E	te	2G	te	4g	di-	1g	-gunt,
.	.	.	.	4f	.	.	.
.	.	2c	di-	4e	.	.	.
.	.	.	.	4d	.	.	.
1F	di-	2A	.	2c	.	1r	.
.	.	[2d	.	2A	-li-	.	.
=163	=163	=163	=163	=163	=163	=163	=163
1E	-li-	2d]	.	2G	-gunt,	0r	.
.	.	2c#i	-li-	2g	qui	.	.
1D	-gunt,	1d	-gunt,	4f	te	.	.
.	.	.	.	4e	.	.	.
.	.	.	.	4d	.	.	.
.	.	.	.	4c	.	.	.
=164	=164	=164	=164	=164	=164	=164	=164
2r	.	2d	qui	4B-y	.	2r	.
.	.	.	.	4G	.	.	.
2G	qui	1e	te	2g	di-	2g	qui
1A	te	.	.	2e	.	1cc	te
.	.	[2f	di-	2a	.	.	.
=165	=165	=165	=165	=165	=165	=165	=165
1B-y	di-	4f]	.	2d	.	2dd	di-
.	.	4e	.	.	.	.	.
.	.	1d	.	1g	.	2b-y	.
1A	-li-	.	.	.	.	2cc	.
.	.	2c	-li-	2f#i	-li-	2cc	-li-
=166	=166	=166	=166	=166	=166	=166	=166
0G	-gunt.	1d	-gunt.	0g	-gunt.	0b-y	-gunt.
.	.	2r	.	.	.	.	.
.	.	2G	De-	.	.	.	.
=167	=167	=167	=167	=167	=167	=167	=167
0r	.	2.G	-fen-	1r	.	2r	.
.	.	.	.	.	.	2g	De-
.	.	4A	.	.	.	.	.
.	.	[1B-y	.	2r	.	2.g	-fen-
.	.	.	.	2G	De-	.	.
.	.	.	.	.	.	4a	.
=168	=168	=168	=168	=168	=168	=168	=168
1r	.	1B-]	.	2.G	-fen-	4b-y	.
.	.	.	.	.	.	4a	.
.	.	.	.	.	.	4b-y	.
.	.	.	.	4A	.	4cc	.
1GG	De-	1G	-sor,	2.B-y	.	2.dd	.
.	.	.	.	4A	.	4cc	.
=169	=169	=169	=169	=169	=169	=169	=169
0GG	-fen-	0r	.	4G	.	4b-y	.
.	.	.	.	4F	.	4a	.
.	.	.	.	1G	.	1b-y	.
.	.	.	.	4F	.	4a	.
.	.	.	.	4E	.	4g	.
=170	=170	=170	=170	=170	=170	=170	=170
0BB-y	.	1r	.	2D	.	2f	.
.	.	.	.	2F	.	2.d	.
.	.	1D	de-	2G	.	.	.
.	.	.	.	.	.	4e	.
.	.	.	.	2F	.	2f	.
=171	=171	=171	=171	=171	=171	=171	=171
0GG	-sor	0D	-fen-	2.B-y	.	2.g	.
.	.	.	.	4c	.	4a	.
.	.	.	.	4d	.	4b-y	.
.	.	.	.	4B-y	.	4g	.
.	.	.	.	[2d	.	[2b-y	.
=172	=172	=172	=172	=172	=172	=172	=172
0FF	.	0F	.	2d]	.	2b-]	.
.	.	.	.	4c	.	4a	.
.	.	.	.	4B-y	.	4g	.
.	.	.	.	1c	.	1a	.
=173	=173	=173	=173	=173	=173	=173	=173
0GG	no-	0D	-sor	1B-y	-sor	2b-y	-sor
.	.	.	.	.	.	4g	no-
.	.	.	.	.	.	4a	.
.	.	.	.	2r	.	4b-y	.
.	.	.	.	.	.	4a	.
.	.	.	.	2B-y	no-	4g	.
.	.	.	.	.	.	4f	.
=174	=174	=174	=174	=174	=174	=174	=174
0AA	-ster	0C	.	2c	.	2e	.
.	.	.	.	4A	.	2f	.
.	.	.	.	4B-y	.	.	.
.	.	.	.	4c	.	1e	.
.	.	.	.	4B-y	.	.	.
.	.	.	.	4A	.	.	.
.	.	.	.	4G	.	.	.
=175	=175	=175	=175	=175	=175	=175	=175
0BB-y	a-	0D	no-	2F	-ster	2d	-ster
.	.	.	.	2.f	a-	2.dd	a-
.	.	.	.	4d	-spi-	4b-y	-spi-
.	.	.	.	2d	-ce,	2b-y	-ce,
=176	=176	=176	=176	=176	=176	=176	=176
0AA	-spi-	1E	-ster	2r	.	2.cc	a-
.	.	.	.	2.c	a-	.	.
.	.	.	.	.	.	4a	-spi-
.	.	1F	a-	.	.	1a	-ce,
.	.	.	.	4F	-spi-	.	.
.	.	.	.	2F	-ce,	.	.
=177	=177	=177	=177	=177	=177	=177	=177
1GG	-ce,	1E	-spi-	2r	.	1r	.
.	.	.	.	2G	in-	.	.
1BB-y	in-	1D	-ce,	2d	-si-	2.f	a-
.	.	.	.	2d	-di-	.	.
.	.	.	.	.	.	4d	-spi-
=178	=178	=178	=178	=178	=178	=178	=178
1BB-y	-si-	1F	in-	2.B-y	-an-	2d	-ce,
.	.	.	.	.	.	2dd	in-
.	.	.	.	4c	.	.	.
1BB-y	-di-	1F	-si-	1d	.	2dd	-si-
.	.	.	.	.	.	2b-y	-di-
=179	=179	=179	=179	=179	=179	=179	=179
[0AA	-an-	1F	-di-	1c	-tes	1.cc	-an-
.	.	[1E	-an-	2r	.	.	.
.	.	.	.	[2c	re-	2a	.
=180	=180	=180	=180	=180	=180	=180	=180
0AA]	.	1E]	.	2c]	.	1a	-tes
.	.	.	.	2A	-pri-	.	.
.	.	[1C	-tes	1A	-me,	2r	.
.	.	.	.	.	.	[2cc	re-
=181	=181	=181	=181	=181	=181	=181	=181
0FF	-tes	1C]	.	2r	.	2cc]	.
.	.	.	.	1f	re-	2a	-pri-
.	.	[1D	re-	.	.	1a	-me,
.	.	.	.	2d	-pri-	.	.
=182	=182	=182	=182	=182	=182	=182	=182
0GG	re-	0D_	.	1d	-me,	2.b-y	re-
.	.	.	.	.	.	4g	-pri-
.	.	.	.	2.d	[re-	1g	-me,
.	.	.	.	4B-y	-pri-	.	.
=183	=183	=183	=183	=183	=183	=183	=183
0BB-y	-pri-	1D]	.	1B-y	-me,]	2r	.
.	.	.	.	.	.	2.dd	re-
.	.	[1F	-pri-	2d	re-	.	.
.	.	.	.	.	.	4b-y	-pri-
.	.	.	.	2d	-pri-	2b-y	-me,
=184	=184	=184	=184	=184	=184	=184	=184
0AA	-me,	1F]	.	1c	-me,	2r	.
.	.	.	.	.	.	1cc	re-
.	.	1E	-me,	2r	.	.	.
.	.	.	.	2c	gu-	2a	-pri-
=185	=185	=185	=185	=185	=185	=185	=185
1r	.	2r	.	2c	-ber-	2a	-me,
.	.	2F	gu-	2c	-na	2f	gu-
1BB-y	gu-	1G	-ber-	1B-y	tu-	2d	-ber-
.	.	.	.	.	.	2d	-na
=186	=186	=186	=186	=186	=186	=186	=186
1C	-ber-	1G	-na	2G	-os	2.e	tu-
.	.	.	.	2.g	fa-	.	.
.	.	.	.	.	.	4c	.
1C	-na	1G	tu-	.	.	2c	-os
.	.	.	.	4e	.	.	.
.	.	.	.	[2e	.	[2g	fa-
=187	=187	=187	=187	=187	=187	=187	=187
0C	tu-	0E	-os	2e]	.	2g]	.
.	.	.	.	2c	-mu-	2e	-mu-
.	.	.	.	1c	-los,	2e	-los,
.	.	.	.	.	.	[2cc	fa-
=188	=188	=188	=188	=188	=188	=188	=188
0AA	-os	1F	fa-	2r	.	2cc]	.
.	.	.	.	1c	tu-	2a	-mu-
.	.	1E	-mu-	.	.	1a	-los,
.	.	.	.	2c	-os	.	.
=189	=189	=189	=189	=189	=189	=189	=189
1BB-y	fa-	1D	-los,	1d	fa-	2f	fa-
.	.	.	.	.	.	2g	-mu-
1AA	-mu-	2r	.	1c	-mu-	1a	-los,
.	.	2F	[gu-	.	.	.	.
=190	=190	=190	=190	=190	=190	=190	=190
0GG	-los,	1G	-ber-	2B-y	-los,	2r	.
.	.	.	.	1d	fa-	1b-y	fa-
.	.	1G	-na	.	.	.	.
.	.	.	.	2B-y	-mu-	2g	-mu-
=191	=191	=191	=191	=191	=191	=191	=191
0r	.	1G	tu-	1B-y	-los,	1g	-los,
.	.	1E	-os	1c	tu-	2r	.
.	.	.	.	.	.	[2cc	fa-
=192	=192	=192	=192	=192	=192	=192	=192
1r	.	1F	fa-	2A	-os	2cc]	.
.	.	.	.	1d	fa-	2a	-mu-
1AA	quos	1E	-mu-	.	.	1a	-los,
.	.	.	.	2c#i	.	.	.
=193	=193	=193	=193	=193	=193	=193	=193
0BB-y	san-	0D	-los,]	2.d	.	2.f	[fa-
.	.	.	.	4B-y	-mu-	4d	-mu-
.	.	.	.	2B-y	-los,	1d	-los,]
.	.	.	.	2B-y	quos	.	.
=194	=194	=194	=194	=194	=194	=194	=194
0GG	-gui-	1r	.	2.B-y	san-	2b-y	quos
.	.	.	.	.	.	2.b-y	san-
.	.	.	.	4G	-gui-	.	.
.	.	1E	quos	1G	-ne,	.	.
.	.	.	.	.	.	4g	-gui-
.	.	.	.	.	.	2g	-ne,
=195	=195	=195	=195	=195	=195	=195	=195
0FF	.	0F	san-	2.A	quos	2cc	quos
.	.	.	.	.	.	2.cc	san-
.	.	.	.	4B-y	.	.	.
.	.	.	.	2c	.	.	.
.	.	.	.	.	.	4a	-gui-
.	.	.	.	2d	.	2a	-ne,
=196	=196	=196	=196	=196	=196	=196	=196
0GG	-ne	0D	-gui-	2.B-y	san-	2b-y	quos
.	.	.	.	.	.	2.b-y	san-
.	.	.	.	4G	-gui-	.	.
.	.	.	.	2G	-ne,	.	.
.	.	.	.	.	.	4g	-gui-
.	.	.	.	2g	quos	2g	-ne,
=197	=197	=197	=197	=197	=197	=197	=197
1r	.	0C	.	2.e	san-	2cc	quos
.	.	.	.	.	.	2.cc	san-
.	.	.	.	4c	-gui-	.	.
1AA	mer-	.	.	2c	-ne,	.	.
.	.	.	.	.	.	4a	-gui-
.	.	.	.	[2f	san-	2a	-ne,
=198	=198	=198	=198	=198	=198	=198	=198
0BB-y	-ca-	0D	-ne	4f]	.	2f	quos
.	.	.	.	4d	-gui-	.	.
.	.	.	.	2.d	-ne	2.f	san-
.	.	.	.	4B-y	mer-	4d	-gui-
.	.	.	.	2B-y	-ca-	2d	-ne
=199	=199	=199	=199	=199	=199	=199	=199
0AA	-tus	0r	.	4c	.	2r	.
.	.	.	.	4B-y	.	.	.
.	.	.	.	4A	.	2a	mer-
.	.	.	.	4G	.	.	.
.	.	.	.	2F	.	2a	-ca-
.	.	.	.	2F	-tus	2a	-tus
=200	=200	=200	=200	=200	=200	=200	=200
0GG	es,	1r	.	0G	es,	1b-y	es,
.	.	1E	mer-	.	.	2r	.
.	.	.	.	.	.	2g	mer-
=201	=201	=201	=201	=201	=201	=201	=201
0r	.	0F	-ca-	2r	.	2.a	-ca-
.	.	.	.	2c	[mer-	.	.
.	.	.	.	.	.	4b-y	.
.	.	.	.	2.A	-ca-	4cc	.
.	.	.	.	.	.	4dd	.
.	.	.	.	.	.	[2cc	.
.	.	.	.	4B-y	.	.	.
=202	=202	=202	=202	=202	=202	=202	=202
0r	.	0E	-tus	2c	.	2cc]	.
.	.	.	.	1d	.	4b-y	.
.	.	.	.	.	.	4a	.
.	.	.	.	.	.	2g	.
.	.	.	.	2c	.	2e	.
=203	=203	=203	=203	=203	=203	=203	=203
0r	.	[0Dl	es.	2B-y	.	2f	.
.	.	.	.	4A	.	1g	.
.	.	.	.	4G	.	.	.
.	.	.	.	2A	.	.	.
.	.	.	.	2A	-tus	2f#i	-tus
=204	=204	=204	=204	=204	=204	=204	=204
00GGl	es.	00D]	.	00Gl	es.]	00gl	es.
==	==	==	==	==	==	==	==
*-	*-	*-	*-	*-	*-	*-	*-
!!!system-decoration: [*]
!!!RDF**kern: i = editorial accidental
!!!RDF**kern: l = terminal long
!!!PTL: <i> New Senfl Edition: Motets for Four Voices (A-I) </i>
!!!PPR: Hollitzer Verlag
!!!PC#: Denkmäler der Tonkunst in Österreich 163.1
!!!PDT: 2021
!!!PED: Scott Lee Edwards, Stefan Gasch, and Sonja Tröster
!!!YEC: Copyright 2021 Denkmäler der Tonkunst in Österreich
!!!YEM: CC-BY-NC 4.0 (https://creativecommons.org/licenses/by-nc/4.0/legalcode)
!!!EED: Benjamin Ory
!!!EEV: 2024/4/15
!!!verovio: header encoded
!!!header-left: @{PTL}\n@{PED}, eds.\n@{PC#} (@{PDT})&nbsp;\n
!!!header-right:
!!!header-center:
